%
(Header)
(Generated by gcodetools from Inkscape.)
(Using default header. To add your own header create file "header" in the output dir.)
M3
(Header end.)
G21 (All units in mm)

(Start cutting path id: path1598)
(Change tool to Default tool)

G00 Z5.000000
G00 X54.499965 Y199.550628

G01 Z-0.125000 F100.0(Penetrate)
G03 X49.196809 Y197.353988 Z-0.125000 I-0.000000 J-7.499793 F400.000000
G03 X47.000172 Y192.050836 Z-0.125000 I5.303155 J-5.303152
G01 X47.000172 Y44.150489 Z-0.125000
G01 X47.001231 Y44.150489 Z-0.125000
G03 X47.005669 Y44.082434 Z-0.125000 I0.499983 J-0.001563
G03 X47.019328 Y44.015615 Z-0.125000 I0.495544 J0.066493
G02 X48.236449 Y38.812389 Z-0.125000 I-59.155717 J-16.581465
G02 X48.911716 Y34.709218 Z-0.125000 I-88.186553 J-16.620185
G03 X48.900602 Y34.652050 Z-0.125000 I0.484446 J-0.123841
G03 X48.896211 Y34.593979 Z-0.125000 I0.495559 J-0.066674
G03 X48.897168 Y34.529978 Z-0.125000 I1.167405 J-0.014553
G02 X48.898328 Y34.465823 Z-0.125000 I-1.319633 J-0.055943
G03 X48.858560 Y31.414001 Z-0.125000 I471.651834 J-7.672160
G03 X49.158259 Y28.144768 Z-0.125000 I16.245071 J-0.159125
G03 X49.434788 Y27.064290 Z-0.125000 I9.454459 J1.844068
G03 X49.826435 Y26.136625 Z-0.125000 I5.278410 J1.681965
G03 X50.129159 Y25.094840 Z-0.125000 I17.562453 J4.538460
G03 X50.473422 Y24.158455 Z-0.125000 I11.986127 J3.875237
G02 X50.465283 Y24.058825 Z-0.125000 I-5.781117 J0.422147
G03 X50.459981 Y23.957948 Z-0.125000 I1.337032 J-0.120844
G03 X51.454170 Y21.454402 Z-0.125000 I3.519040 J-0.051722
G03 X53.927466 Y20.387112 Z-0.125000 I2.525027 J2.451994
G03 X56.150797 Y21.186780 Z-0.125000 I0.049268 J3.353640
G03 X57.349476 Y23.169369 Z-0.125000 I-2.374240 J2.789130
G03 X57.459324 Y23.504408 Z-0.125000 I-1.613525 J0.714543
G03 X57.500371 Y23.854597 Z-0.125000 I-1.723372 J0.379505
G03 X57.469608 Y24.205842 Z-0.125000 I-1.764520 J0.022430
G03 X57.369630 Y24.543960 Z-0.125000 I-1.733758 J-0.328816
G03 X56.229706 Y26.560843 Z-0.125000 I-3.594676 J-0.701099
G03 X54.030820 Y27.425433 Z-0.125000 I-2.248184 J-2.489262
G03 X53.646642 Y27.408723 Z-0.125000 I-0.048646 J-3.306242
G03 X53.279444 Y27.352054 Z-0.125000 I0.366393 J-3.592092
G02 X52.414090 Y28.115532 Z-0.125000 I3.731496 J5.101561
G02 X51.617016 Y29.099749 Z-0.125000 I6.087857 J5.745157
G02 X50.846700 Y30.442455 Z-0.125000 I7.574842 J5.238040
G02 X50.287383 Y31.922312 Z-0.125000 I9.520153 J4.443795
G03 X49.584701 Y36.927851 Z-0.125000 I-148.839147 J-18.342093
G03 X48.000187 Y44.212502 Z-0.125000 I-63.678350 J-10.036278
G01 X48.000187 Y192.050836 Z-0.125000
G02 X49.903949 Y196.646925 Z-0.125000 I6.499855 J-0.000000
G02 X54.500042 Y198.550690 Z-0.125000 I4.596093 J-4.596089
G02 X59.096130 Y196.646929 Z-0.125000 I-0.000000 J-6.499850
G02 X60.999894 Y192.050836 Z-0.125000 I-4.596093 J-4.596093
G01 X60.999894 Y50.367158 Z-0.125000
G01 X61.002010 Y50.367158 Z-0.125000
G03 X61.441453 Y49.306692 Z-0.125000 I1.499282 J-0.000000
G03 X62.502178 Y48.867509 Z-0.125000 I1.060725 J1.061351
G03 X63.562586 Y49.306745 Z-0.125000 I-0.000000 J1.499644
G03 X64.001823 Y50.367158 Z-0.125000 I-1.060413 J1.060413
G01 X64.001823 Y192.050836 Z-0.125000
G01 X64.000236 Y192.050836 Z-0.125000
G02 X65.904818 Y196.647141 Z-0.125000 I6.498395 J-0.000000
G02 X70.502157 Y198.550690 Z-0.125000 I4.597339 J-4.599833
G02 X75.098247 Y196.646928 Z-0.125000 I0.000000 J-6.499854
G02 X77.002011 Y192.050836 Z-0.125000 I-4.596091 J-4.596092
G01 X77.002011 Y48.549181 Z-0.125000
G03 X77.221327 Y47.663792 Z-0.125000 I1.896838 J-0.000000
G03 X77.763722 Y46.988557 Z-0.125000 I2.016399 J1.064247
G03 X78.495638 Y46.510766 Z-0.125000 I2.272745 J2.682063
G03 X79.459223 Y46.107475 Z-0.125000 I3.995824 J8.194436
G03 X81.543432 Y45.492411 Z-0.125000 I6.939445 J19.676255
G02 X84.092007 Y44.775775 Z-0.125000 I-7.849737 J-32.806130
G02 X86.479790 Y43.793039 Z-0.125000 I-5.168745 J-15.950841
G02 X88.371328 Y42.388843 Z-0.125000 I-3.118083 J-6.176355
G02 X89.500545 Y40.558788 Z-0.125000 I-3.765092 J-3.586626
G02 X89.960895 Y37.271850 Z-0.125000 I-7.656996 J-2.748102
G02 X89.895679 Y37.027480 Z-0.125000 I-11.827469 J3.025574
G02 X87.372942 Y29.675939 Z-0.125000 I-63.059900 J17.530858
G02 X84.173722 Y23.085876 Z-0.125000 I-54.701440 J22.483849
G02 X79.718638 Y17.580569 Z-0.125000 I-18.614400 J10.508157
G02 X77.023461 Y15.755868 Z-0.125000 I-8.387124 J9.485400
G02 X74.213036 Y14.945590 Z-0.125000 I-3.563488 J7.080780
G02 X71.381177 Y15.211884 Z-0.125000 I-0.719474 J7.539482
G02 X67.515779 Y17.068456 Z-0.125000 I3.638350 J12.527256
G02 X61.560224 Y23.128166 Z-0.125000 I13.560812 J19.284178
G02 X50.000075 Y44.254875 Z-0.125000 I105.239450 J71.311209
G01 X50.000075 Y192.050836 Z-0.125000
G02 X51.318087 Y195.232800 Z-0.125000 I4.499979 J0.000000
G02 X54.500055 Y196.550815 Z-0.125000 I3.181968 J-3.181965
G02 X57.682018 Y195.232803 Z-0.125000 I0.000000 J-4.499976
G02 X59.000033 Y192.050836 Z-0.125000 I-3.181966 J-3.181967
G01 X59.000033 Y50.367158 Z-0.125000
G01 X59.002009 Y50.367158 Z-0.125000
G03 X60.027167 Y47.892600 Z-0.125000 I3.499161 J0.000000
G03 X62.502051 Y46.867632 Z-0.125000 I2.474883 J2.475439
G03 X64.976931 Y47.892599 Z-0.125000 I0.000000 J3.500402
G03 X66.002089 Y50.367158 Z-0.125000 I-2.474004 J2.474559
G01 X66.002089 Y192.050836 Z-0.125000
G02 X67.320101 Y195.232801 Z-0.125000 I4.499981 J-0.000000
G02 X70.502067 Y196.550815 Z-0.125000 I3.181965 J-3.181962
G02 X73.684032 Y195.232802 Z-0.125000 I0.000000 J-4.499981
G02 X75.002047 Y192.050836 Z-0.125000 I-3.181964 J-3.181967
G01 X75.002047 Y47.917699 Z-0.125000
G03 X75.005600 Y47.839953 Z-0.125000 I0.499662 J-0.016120
G03 X75.021176 Y47.763701 Z-0.125000 I0.496109 J0.061626
G03 X76.234245 Y45.847274 Z-0.125000 I3.954630 J1.161080
G03 X78.093853 Y44.648651 Z-0.125000 I4.760516 J5.343859
G03 X80.313382 Y43.871470 Z-0.125000 I5.924367 J13.361301
G02 X82.646540 Y43.224967 Z-0.125000 I-21.864768 J-83.440811
G02 X84.893087 Y42.417971 Z-0.125000 I-5.536916 J-18.944390
G02 X86.431318 Y41.406475 Z-0.125000 I-2.069649 J-4.822793
G02 X87.302496 Y40.052264 Z-0.125000 I-2.317565 J-2.448238
G02 X87.573367 Y37.464601 Z-0.125000 I-5.486318 J-1.882304
G02 X87.551577 Y37.374270 Z-0.125000 I-4.907477 J1.136014
G02 X85.386422 Y30.545136 Z-0.125000 I-56.902483 J14.282957
G02 X82.633170 Y24.550370 Z-0.125000 I-49.330535 J19.026688
G02 X78.783216 Y19.623335 Z-0.125000 I-16.248282 J8.728625
G02 X76.428306 Y18.000431 Z-0.125000 I-7.207413 J7.938296
G02 X73.966461 Y17.298934 Z-0.125000 I-3.034704 J5.979472
G02 X71.487863 Y17.564562 Z-0.125000 I-0.557168 J6.497852
G02 X68.009727 Y19.299324 Z-0.125000 I3.515464 J11.402526
G02 X62.637822 Y24.853600 Z-0.125000 I12.944973 J17.894831
G02 X51.999873 Y44.257976 Z-0.125000 I100.541920 J67.737699
G01 X51.999873 Y192.050836 Z-0.125000
G02 X52.732136 Y193.818676 Z-0.125000 I2.500104 J-0.000000
G02 X54.499976 Y194.550939 Z-0.125000 I1.767840 J-1.767839
G02 X56.267812 Y193.818678 Z-0.125000 I0.000000 J-2.500098
G02 X57.000076 Y192.050836 Z-0.125000 I-1.767842 J-1.767842
G01 X57.000076 Y50.367158 Z-0.125000
G01 X57.002193 Y50.367158 Z-0.125000
G03 X58.613014 Y46.478197 Z-0.125000 I5.499916 J0.000000
G03 X62.502109 Y44.867242 Z-0.125000 I3.889095 J3.888961
G03 X66.391199 Y46.478194 Z-0.125000 I-0.000000 J5.499911
G03 X68.002022 Y50.367158 Z-0.125000 I-3.889094 J3.888964
G01 X68.002022 Y192.050836 Z-0.125000
G02 X68.734286 Y193.818677 Z-0.125000 I2.500104 J-0.000000
G02 X70.502125 Y194.550939 Z-0.125000 I1.767839 J-1.767840
G02 X72.269652 Y193.818624 Z-0.125000 I-0.000000 J-2.499222
G02 X73.001712 Y192.050836 Z-0.125000 I-1.768410 J-1.767788
G01 X73.001712 Y47.291380 Z-0.125000
G03 X73.001711 Y47.290322 Z-0.125000 I0.499922 J-0.001058
G03 X73.001712 Y47.289264 Z-0.125000 I0.499923 J-0.000000
G03 X73.657922 Y45.265284 Z-0.125000 I3.514550 J0.021112
G03 X75.103390 Y43.929782 Z-0.125000 I3.952463 J2.827917
G03 X77.029429 Y43.036007 Z-0.125000 I5.103208 J8.475003
G03 X79.292792 Y42.291124 Z-0.125000 I42.455140 J125.190956
G02 X81.552581 Y41.500503 Z-0.125000 I-13.178100 J-41.291055
G02 X83.285310 Y40.587871 Z-0.125000 I-2.898861 J-7.604999
G02 X84.471796 Y39.356786 Z-0.125000 I-2.467468 J-3.565372
G02 X85.052640 Y37.543100 Z-0.125000 I-3.138440 J-2.004957
G02 X85.028010 Y37.424491 Z-0.125000 I-6.710602 J1.331615
G02 X83.316314 Y31.324365 Z-0.125000 I-51.655998 J11.204468
G02 X81.030856 Y25.856141 Z-0.125000 I-44.933735 J15.568447
G02 X77.814331 Y21.470715 Z-0.125000 I-14.039684 J6.925208
G02 X75.810588 Y20.033803 Z-0.125000 I-6.054221 J6.326939
G02 X73.716912 Y19.435701 Z-0.125000 I-2.502616 J4.796950
G02 X71.606724 Y19.695907 Z-0.125000 I-0.407797 J5.379467
G02 X68.517752 Y21.320336 Z-0.125000 I3.391294 J10.197964
G02 X63.741166 Y26.399440 Z-0.125000 I12.508979 J16.549527
G02 X53.999737 Y44.258495 Z-0.125000 I98.087422 J65.089239
G01 X53.999737 Y192.030166 Z-0.125000
G03 X53.999843 Y192.040498 Z-0.125000 I-0.499893 J0.010332
G03 X53.999737 Y192.050830 Z-0.125000 I-0.499999 J0.000000
G02 X54.146464 Y192.403299 Z-0.125000 I0.496713 J0.000000
G02 X54.499965 Y192.548993 Z-0.125000 I0.353501 J-0.356008
G02 X54.853151 Y192.403247 Z-0.125000 I-0.000000 J-0.500811
G02 X54.999675 Y192.050830 Z-0.125000 I-0.350551 J-0.352417
G01 X54.999675 Y50.367152 Z-0.125000
G03 X57.197239 Y45.063829 Z-0.125000 I7.497968 J0.000000
G03 X62.502051 Y42.867359 Z-0.125000 I5.304811 J5.307733
G03 X67.805298 Y45.064093 Z-0.125000 I-0.000000 J7.499788
G03 X70.001841 Y50.367152 Z-0.125000 I-5.303252 J5.303059
G01 X70.001841 Y192.050836 Z-0.125000
G02 X70.148568 Y192.403305 Z-0.125000 I0.496715 J0.000000
G02 X70.502067 Y192.548998 Z-0.125000 I0.353499 J-0.356005
G02 X70.855255 Y192.403251 Z-0.125000 I-0.000000 J-0.500816
G02 X71.001779 Y192.050836 Z-0.125000 I-0.350549 J-0.352416
G01 X71.001779 Y44.183562 Z-0.125000
G01 X71.002838 Y44.183562 Z-0.125000
G03 X71.001767 Y44.160320 Z-0.125000 I0.498737 J-0.034615
G03 X71.001779 Y44.137054 Z-0.125000 I0.499807 J-0.011373
G02 X71.155506 Y38.424761 Z-0.125000 I-22451.516539 J-607.061034
G03 X71.228638 Y35.998544 Z-0.125000 I361.537960 J9.683493
G03 X71.228109 Y35.998015 Z-0.125000 I0.353023 J-0.354082
G03 X71.227580 Y35.997486 Z-0.125000 I0.353553 J-0.353553
G03 X71.224992 Y35.995166 Z-0.125000 I0.332420 J-0.373492
G03 X71.222420 Y35.992829 Z-0.125000 I0.335007 J-0.371173
G03 X71.220870 Y35.991509 Z-0.125000 I0.323309 J-0.381406
G03 X71.219325 Y35.990183 Z-0.125000 I0.324860 J-0.380086
G03 X71.218265 Y35.989391 Z-0.125000 I0.298940 J-0.400792
G03 X71.217208 Y35.988596 Z-0.125000 I0.300000 J-0.399999
G03 X71.216414 Y35.988067 Z-0.125000 I0.276555 J-0.416553
G03 X71.215621 Y35.987537 Z-0.125000 I0.277350 J-0.416025
G03 X71.205396 Y35.977600 Z-0.125000 I0.343329 J-0.363490
G03 X71.195459 Y35.967376 Z-0.125000 I0.353553 J-0.353553
G03 X71.194665 Y35.966583 Z-0.125000 I0.352758 J-0.354346
G03 X71.193872 Y35.965789 Z-0.125000 I0.353553 J-0.353553
G03 X71.187606 Y35.959125 Z-0.125000 I0.361108 J-0.345833
G03 X71.181463 Y35.952348 Z-0.125000 I0.367374 J-0.339170
G03 X71.178085 Y35.948753 Z-0.125000 I0.362684 J-0.344180
G03 X71.174743 Y35.945125 Z-0.125000 I0.366062 J-0.340585
G03 X71.172150 Y35.942039 Z-0.125000 I0.381518 J-0.323177
G03 X71.169583 Y35.938933 Z-0.125000 I0.384110 J-0.320092
G03 X71.169319 Y35.938669 Z-0.125000 I0.353288 J-0.353817
G03 X71.169054 Y35.938404 Z-0.125000 I0.353553 J-0.353553
G03 X71.166193 Y35.934806 Z-0.125000 I0.389948 J-0.312953
G03 X71.163366 Y35.931181 Z-0.125000 I0.392809 J-0.309355
G03 X71.159207 Y35.926300 Z-0.125000 I0.378510 J-0.326695
G03 X71.155111 Y35.921365 Z-0.125000 I0.382669 J-0.321813
G03 X71.154581 Y35.920572 Z-0.125000 I0.415495 J-0.278143
G03 X71.154052 Y35.919778 Z-0.125000 I0.416025 J-0.277350
G03 X71.154052 Y35.919513 Z-0.125000 I0.499999 J-0.000265
G03 X71.154052 Y35.919248 Z-0.125000 I0.500000 J0.000001
G03 X71.152726 Y35.917703 Z-0.125000 I0.378760 J-0.326405
G03 X71.151406 Y35.916153 Z-0.125000 I0.380086 J-0.324860
G03 X71.147762 Y35.911003 Z-0.125000 I0.406316 J-0.291388
G03 X71.144183 Y35.905808 Z-0.125000 I0.409960 J-0.286238
G03 X71.140523 Y35.900407 Z-0.125000 I0.412052 J-0.283218
G03 X71.136934 Y35.894960 Z-0.125000 I0.415712 J-0.277818
G03 X71.136669 Y35.894695 Z-0.125000 I0.353288 J-0.353817
G03 X71.136405 Y35.894431 Z-0.125000 I0.353553 J-0.353553
G03 X71.135874 Y35.893373 Z-0.125000 I0.446683 J-0.224664
G03 X71.135346 Y35.892314 Z-0.125000 I0.447213 J-0.223607
G03 X71.134286 Y35.890993 Z-0.125000 I0.389373 J-0.313668
G03 X71.133230 Y35.889668 Z-0.125000 I0.390434 J-0.312347
G03 X71.131406 Y35.886579 Z-0.125000 I0.429664 J-0.255712
G03 X71.129605 Y35.883477 Z-0.125000 I0.431487 J-0.252623
G03 X71.129605 Y35.883212 Z-0.125000 I0.499999 J-0.000263
G03 X71.129605 Y35.882948 Z-0.125000 I0.499999 J-0.000001
G03 X71.124886 Y35.875751 Z-0.125000 I0.415745 J-0.277769
G03 X71.120291 Y35.868475 Z-0.125000 I0.420464 J-0.270573
G03 X71.119496 Y35.867153 Z-0.125000 I0.427950 J-0.258569
G03 X71.118704 Y35.865829 Z-0.125000 I0.428746 J-0.257248
G03 X71.116097 Y35.860935 Z-0.125000 I0.439981 J-0.237521
G03 X71.113545 Y35.856013 Z-0.125000 I0.442588 J-0.232627
G03 X71.109885 Y35.849584 Z-0.125000 I0.432700 J-0.250540
G03 X71.106321 Y35.843101 Z-0.125000 I0.436359 J-0.244111
G03 X71.106056 Y35.842308 Z-0.125000 I0.474076 J-0.158907
G03 X71.105792 Y35.841514 Z-0.125000 I0.474341 J-0.158114
G03 X71.104996 Y35.839968 Z-0.125000 I0.444112 J-0.229704
G03 X71.104205 Y35.838418 Z-0.125000 I0.444908 J-0.228158
G03 X71.102645 Y35.835064 Z-0.125000 I0.452576 J-0.212543
G03 X71.101109 Y35.831698 Z-0.125000 I0.454136 J-0.209189
G03 X71.096892 Y35.822690 Z-0.125000 I0.450691 J-0.216510
G03 X71.092854 Y35.813600 Z-0.125000 I0.454909 J-0.207502
G03 X71.091789 Y35.811024 Z-0.125000 I0.461518 J-0.192355
G03 X71.090737 Y35.808441 Z-0.125000 I0.462584 J-0.189778
G03 X71.090207 Y35.807383 Z-0.125000 I0.446683 J-0.224664
G03 X71.089679 Y35.806324 Z-0.125000 I0.447213 J-0.223607
G03 X71.085704 Y35.796800 Z-0.125000 I0.459418 J-0.197317
G03 X71.081927 Y35.787195 Z-0.125000 I0.463393 J-0.187793
G03 X71.081661 Y35.786137 Z-0.125000 I0.484805 J-0.122326
G03 X71.081398 Y35.785078 Z-0.125000 I0.485071 J-0.121268
G03 X71.080598 Y35.782752 Z-0.125000 I0.472455 J-0.163663
G03 X71.079810 Y35.780422 Z-0.125000 I0.473255 J-0.161337
G03 X71.079008 Y35.777580 Z-0.125000 I0.480795 J-0.137241
G03 X71.078223 Y35.774733 Z-0.125000 I0.481598 J-0.134399
G03 X71.075302 Y35.766226 Z-0.125000 I0.471420 J-0.166621
G03 X71.072534 Y35.757668 Z-0.125000 I0.474341 J-0.158114
G03 X71.071729 Y35.754310 Z-0.125000 I0.485802 J-0.118304
G03 X71.070947 Y35.750947 Z-0.125000 I0.486607 J-0.114947
G03 X71.070412 Y35.748620 Z-0.125000 I0.487031 J-0.113137
G03 X71.069888 Y35.746291 Z-0.125000 I0.487566 J-0.110810
G03 X71.068818 Y35.742934 Z-0.125000 I0.475834 J-0.153562
G03 X71.067772 Y35.739570 Z-0.125000 I0.476904 J-0.150206
G03 X71.065339 Y35.729514 Z-0.125000 I0.484741 J-0.122580
G03 X71.063115 Y35.719409 Z-0.125000 I0.487173 J-0.112523
G03 X71.061498 Y35.711154 Z-0.125000 I0.489845 J-0.100257
G03 X71.060019 Y35.702872 Z-0.125000 I0.491462 J-0.092002
G03 X71.059479 Y35.699514 Z-0.125000 I0.493372 J-0.081140
G03 X71.058961 Y35.696152 Z-0.125000 I0.493912 J-0.077781
G03 X71.058420 Y35.692794 Z-0.125000 I0.493372 J-0.081140
G03 X71.057903 Y35.689432 Z-0.125000 I0.493912 J-0.077781
G01 X69.245096 Y25.302998 Z-0.125000
G03 X69.210797 Y25.135084 Z-0.125000 I3.466778 J-0.795608
G03 X69.185668 Y24.962970 Z-0.125000 I2.640475 J-0.473400
G01 X69.181012 Y24.935064 Z-0.125000
G03 X69.174051 Y24.873245 Z-0.125000 I0.492417 J-0.086748
G03 X69.174821 Y24.811041 Z-0.125000 I0.499378 J-0.024929
G02 X69.168431 Y24.715542 Z-0.125000 I-11.968282 J0.752847
G03 X69.165005 Y24.618803 Z-0.125000 I1.364048 J-0.096739
G03 X70.079804 Y22.410285 Z-0.125000 I3.123324 J0.000005
G03 X72.288325 Y21.495485 Z-0.125000 I2.208521 J2.208519
G03 X73.926977 Y22.109168 Z-0.125000 I0.000000 J2.494600
G03 X74.948625 Y23.507245 Z-0.125000 I-2.570953 J2.951055
G03 X75.292099 Y24.016553 Z-0.125000 I-1.101152 J1.113083
G03 X75.413196 Y24.618803 Z-0.125000 I-1.444626 J0.603775
G03 X75.291444 Y25.222130 Z-0.125000 I-1.565722 J-0.002015
G03 X74.946556 Y25.731914 Z-0.125000 I-1.443970 J-0.605343
G03 X74.690965 Y26.234294 Z-0.125000 I-4.168644 J-1.804628
G03 X74.380184 Y26.683275 Z-0.125000 I-3.235552 J-1.907575
G01 X72.272304 Y34.827986 Z-0.125000
G02 X72.184654 Y37.439266 Z-0.125000 I218.329021 J8.635559
G02 X72.001004 Y44.163840 Z-0.125000 I12404.211115 J342.128232
G03 X72.000566 Y44.173410 Z-0.125000 I-0.499611 J-0.018047
G03 X71.999945 Y44.182969 Z-0.125000 I-0.499173 J-0.027617
G01 X72.001004 Y44.182969 Z-0.125000
G01 X72.001004 Y192.050836 Z-0.125000
G03 X71.561606 Y193.110312 Z-0.125000 I-1.497006 J0.000000
G03 X70.501355 Y193.548935 Z-0.125000 I-1.060251 J-1.062124
G03 X69.440794 Y193.110367 Z-0.125000 I0.000000 J-1.501629
G03 X69.001191 Y192.050836 Z-0.125000 I1.057040 J-1.059531
G01 X69.001191 Y50.367158 Z-0.125000
G02 X67.097556 Y45.771195 Z-0.125000 I-6.499856 J0.000000
G02 X62.501339 Y43.867303 Z-0.125000 I-4.596217 J4.595958
G02 X57.903869 Y45.770984 Z-0.125000 I-0.000000 J6.503383
G02 X55.999418 Y50.367158 Z-0.125000 I4.593943 J4.596174
G01 X55.999418 Y192.050836 Z-0.125000
G03 X55.559815 Y193.110367 Z-0.125000 I-1.496643 J0.000000
G03 X54.499253 Y193.548935 Z-0.125000 I-1.060561 J-1.063061
G03 X53.438689 Y193.110366 Z-0.125000 I-0.000000 J-1.501634
G03 X52.999086 Y192.050836 Z-0.125000 I1.057038 J-1.059530
G01 X52.999086 Y44.150489 Z-0.125000
G01 X53.000145 Y44.150489 Z-0.125000
G03 X53.010642 Y44.047807 Z-0.125000 I0.499922 J-0.000772
G03 X53.042002 Y43.949470 Z-0.125000 I0.489425 J0.101910
G03 X62.818888 Y25.955435 Z-0.125000 I109.930516 J48.076584
G03 X67.913426 Y20.523539 Z-0.125000 I18.350116 J12.105437
G03 X71.256759 Y18.756096 Z-0.125000 I7.115416 J9.413785
G03 X73.792130 Y18.437879 Z-0.125000 I2.050536 J6.078210
G03 X76.296465 Y19.158992 Z-0.125000 I-0.484489 J6.391753
G03 X78.502948 Y20.748332 Z-0.125000 I-4.570520 J8.671561
G03 X81.966410 Y25.484653 Z-0.125000 I-11.582695 J12.104411
G03 X84.260729 Y30.996272 Z-0.125000 I-44.033180 J21.563010
G03 X85.318616 Y34.358741 Z-0.125000 I-57.993397 J20.093306
G03 X86.053898 Y37.425845 Z-0.125000 I-37.198456 J10.539335
G01 X86.065778 Y37.484754 Z-0.125000
G01 X86.061651 Y37.543150 Z-0.125000
G03 X85.320947 Y39.890772 Z-0.125000 I-4.713370 J-0.196465
G03 X83.854552 Y41.410608 Z-0.125000 I-4.522669 J-2.896308
G03 X81.853894 Y42.459283 Z-0.125000 I-5.256183 J-7.594957
G03 X79.594869 Y43.244605 Z-0.125000 I-16.441644 J-43.653644
G02 X77.291827 Y44.006689 Z-0.125000 I34.683203 J108.674677
G02 X75.620441 Y44.785591 Z-0.125000 I2.827993 J8.251068
G02 X74.469201 Y45.850154 Z-0.125000 I1.993350 J3.310420
G02 X74.001420 Y47.294997 Z-0.125000 I2.044228 J1.459982
G01 X74.001420 Y192.050836 Z-0.125000
G03 X72.976281 Y194.525740 Z-0.125000 I-3.500042 J0.000000
G03 X70.501379 Y195.550877 Z-0.125000 I-2.474902 J-2.474904
G03 X68.026478 Y194.525740 Z-0.125000 I0.000000 J-3.500037
G03 X67.001340 Y192.050836 Z-0.125000 I2.474905 J-2.474904
G01 X67.001340 Y50.367158 Z-0.125000
G02 X65.683423 Y47.185288 Z-0.125000 I-4.499981 J0.000000
G02 X62.501363 Y45.867180 Z-0.125000 I-3.182056 J3.181862
G02 X59.318050 Y47.185078 Z-0.125000 I-0.000000 J4.503511
G02 X57.999316 Y50.367158 Z-0.125000 I3.179782 J3.182080
G01 X57.999316 Y192.050836 Z-0.125000
G03 X56.974177 Y194.525741 Z-0.125000 I-3.500043 J0.000000
G03 X54.499277 Y195.550877 Z-0.125000 I-2.474899 J-2.474901
G03 X52.024374 Y194.525739 Z-0.125000 I0.000000 J-3.500042
G03 X50.999236 Y192.050836 Z-0.125000 I2.474903 J-2.474903
G01 X50.999236 Y44.165994 Z-0.125000
G03 X51.007799 Y44.056509 Z-0.125000 I0.499667 J-0.015996
G03 X51.040061 Y43.951536 Z-0.125000 I0.491104 J0.093489
G03 X61.719492 Y24.402164 Z-0.125000 I113.110535 J49.098358
G03 X67.423019 Y18.490589 Z-0.125000 I19.371198 J12.982275
G03 X71.164262 Y16.617225 Z-0.125000 I7.601293 J10.507880
G03 X74.052064 Y16.303128 Z-0.125000 I2.243775 J7.196986
G03 X76.904158 Y17.120357 Z-0.125000 I-0.659014 J7.685390
G03 X79.454309 Y18.883331 Z-0.125000 I-5.348883 J10.463076
G03 X83.552150 Y24.140906 Z-0.125000 I-13.123621 J14.454518
G03 X86.319516 Y30.185986 Z-0.125000 I-47.946196 J25.605170
G03 X88.509526 Y37.082993 Z-0.125000 I-55.688265 J21.478922
G03 X88.544701 Y37.228440 Z-0.125000 I-7.624406 J1.920901
G03 X88.554884 Y37.268396 Z-0.125000 I-0.478933 J0.143337
G03 X88.561740 Y37.309055 Z-0.125000 I-0.489116 J0.103381
G03 X88.252305 Y40.364050 Z-0.125000 I-6.790207 J0.855400
G03 X87.118419 Y42.133044 Z-0.125000 I-4.137929 J-1.404427
G03 X85.224710 Y43.369071 Z-0.125000 I-4.348502 J-4.593627
G03 X82.926948 Y44.185631 Z-0.125000 I-8.291419 J-19.690496
G03 X80.512748 Y44.855914 Z-0.125000 I-25.982779 J-88.900953
G02 X78.497252 Y45.562804 Z-0.125000 I3.399320 J12.918949
G02 X76.904084 Y46.587214 Z-0.125000 I2.501177 J5.640897
G02 X76.001282 Y47.979709 Z-0.125000 I2.063693 J2.326871
G01 X76.001282 Y192.050836 Z-0.125000
G03 X74.390392 Y195.939866 Z-0.125000 I-5.499918 J-0.000000
G03 X70.501366 Y197.550753 Z-0.125000 I-3.889026 J-3.889029
G03 X66.612025 Y195.939917 Z-0.125000 I0.000000 J-5.500796
G03 X65.000934 Y192.050836 Z-0.125000 I3.888461 J-3.889081
G01 X65.000934 Y50.367158 Z-0.125000
G02 X64.268887 Y48.599747 Z-0.125000 I-2.499589 J0.000000
G02 X62.501349 Y47.867571 Z-0.125000 I-1.767538 J1.767406
G02 X60.732248 Y48.599481 Z-0.125000 I-0.000000 J2.504004
G02 X59.999177 Y50.367158 Z-0.125000 I1.764692 J1.767677
G01 X59.999177 Y192.050836 Z-0.125000
G03 X58.388289 Y195.939866 Z-0.125000 I-5.499920 J0.000000
G03 X54.499264 Y197.550753 Z-0.125000 I-3.889024 J-3.889024
G03 X50.610235 Y195.939863 Z-0.125000 I-0.000000 J-5.499915
G03 X48.999348 Y192.050836 Z-0.125000 I3.889031 J-3.889028
G01 X48.999348 Y44.150489 Z-0.125000
G01 X48.999877 Y44.150489 Z-0.125000
G03 X49.010035 Y44.049999 Z-0.125000 I0.499923 J-0.000225
G03 X49.040184 Y43.953602 Z-0.125000 I0.489765 J0.100264
G03 X60.644128 Y22.673969 Z-0.125000 I118.717778 J50.934021
G03 X66.940877 Y16.251969 Z-0.125000 I20.560113 J13.861150
G03 X71.074702 Y14.258320 Z-0.125000 I8.108931 J11.531282
G03 X74.305794 Y13.949271 Z-0.125000 I2.416855 J8.223124
G03 X77.495015 Y14.872529 Z-0.125000 I-0.849818 J8.905452
G03 X80.379834 Y16.830228 Z-0.125000 I-6.175540 J12.204477
G03 X85.080306 Y22.651999 Z-0.125000 I-14.861357 J16.807449
G03 X88.296136 Y29.295085 Z-0.125000 I-52.901625 J29.708892
G03 X89.834174 Y33.367974 Z-0.125000 I-69.666631 J28.634929
G03 X90.942485 Y37.078580 Z-0.125000 I-43.681640 J15.067975
G03 X90.943288 Y37.081673 Z-0.125000 I-0.483454 J0.127262
G03 X90.944072 Y37.084771 Z-0.125000 I-0.484257 J0.124169
G03 X90.944876 Y37.087864 Z-0.125000 I-0.483454 J0.127262
G03 X90.945660 Y37.090962 Z-0.125000 I-0.484257 J0.124169
G03 X90.948132 Y37.102827 Z-0.125000 I-0.488137 J0.107913
G03 X90.950316 Y37.114748 Z-0.125000 I-0.490609 J0.096048
G03 X90.950316 Y37.115013 Z-0.125000 I-0.499923 J0.000264
G03 X90.950316 Y37.115277 Z-0.125000 I-0.499923 J0.000001
G03 X90.952607 Y37.130232 Z-0.125000 I-0.492958 J0.083156
G03 X90.954444 Y37.145249 Z-0.125000 I-0.495249 J0.068202
G03 X90.955615 Y37.155835 Z-0.125000 I-0.496277 J0.060268
G03 X90.956560 Y37.166442 Z-0.125000 I-0.497448 J0.049683
G03 X90.957628 Y37.182966 Z-0.125000 I-0.498280 J0.040492
G03 X90.958148 Y37.199515 Z-0.125000 I-0.499348 J0.023969
G03 X90.446841 Y40.884571 Z-0.125000 I-9.135692 J0.610409
G03 X89.095214 Y43.080285 Z-0.125000 I-5.843507 J-2.083246
G03 X86.888754 Y44.709643 Z-0.125000 I-5.748765 J-5.476257
G03 X84.399900 Y45.726631 Z-0.125000 I-8.052467 J-16.152680
G03 X81.717684 Y46.482065 Z-0.125000 I-11.063945 J-34.143833
G02 X79.792436 Y47.051097 Z-0.125000 I4.538236 J18.895997
G02 X78.893399 Y47.432899 Z-0.125000 I2.599063 J7.369455
G02 X78.409577 Y47.752347 Z-0.125000 I1.089250 J2.175839
G02 X78.102673 Y48.136159 Z-0.125000 I0.826897 J0.975813
G02 X78.001333 Y48.549195 Z-0.125000 I0.791045 J0.413035
G01 X78.001333 Y192.050836 Z-0.125000
G03 X75.804694 Y197.353991 Z-0.125000 I-7.499792 J0.000000
G03 X70.501540 Y199.550628 Z-0.125000 I-5.303153 J-5.303156
G03 X65.196827 Y197.354256 Z-0.125000 I-0.000000 J-7.504202
G03 X62.999168 Y192.050836 Z-0.125000 I5.300302 J-5.303416
G03 X62.999809 Y192.030403 Z-0.125000 I0.499970 J0.005457
G03 X63.001284 Y192.010013 Z-0.125000 I0.499329 J0.025890
G01 X63.001284 Y50.367158 Z-0.125000
G02 X62.854953 Y50.013840 Z-0.125000 I-0.499710 J0.000000
G02 X62.501574 Y49.867448 Z-0.125000 I-0.353379 J0.353318
G02 X62.147881 Y50.013787 Z-0.125000 I0.000000 J0.500596
G02 X62.001346 Y50.367158 Z-0.125000 I0.352808 J0.353370
G03 X62.000759 Y50.388884 Z-0.125000 I-0.499977 J-0.002625
G03 X61.999229 Y50.410565 Z-0.125000 I-0.499391 J-0.024352
G01 X61.999229 Y192.050836 Z-0.125000
G03 X59.802589 Y197.353992 Z-0.125000 I-7.499794 J-0.000000
G03 X54.499439 Y199.550628 Z-0.125000 I-5.303151 J-5.303152
G01 X54.499965 Y199.550628 Z-0.125000
G00 Z5.000000

(End cutting path id: path1598)


(Start cutting path id: path1598)
(Change tool to Default tool)

G00 Z5.000000
G00 X54.499965 Y199.550628

G01 Z-0.125000 F100.0(Penetrate)
G03 X49.196809 Y197.353988 Z-0.125000 I-0.000000 J-7.499793 F400.000000
G03 X47.000172 Y192.050836 Z-0.125000 I5.303155 J-5.303152
G01 X47.000172 Y44.150489 Z-0.125000
G01 X47.001231 Y44.150489 Z-0.125000
G03 X47.005669 Y44.082434 Z-0.125000 I0.499983 J-0.001563
G03 X47.019328 Y44.015615 Z-0.125000 I0.495544 J0.066493
G02 X48.236449 Y38.812389 Z-0.125000 I-59.155717 J-16.581465
G02 X48.911716 Y34.709218 Z-0.125000 I-88.186553 J-16.620185
G03 X48.900602 Y34.652050 Z-0.125000 I0.484446 J-0.123841
G03 X48.896211 Y34.593979 Z-0.125000 I0.495559 J-0.066674
G03 X48.897168 Y34.529978 Z-0.125000 I1.167405 J-0.014553
G02 X48.898328 Y34.465823 Z-0.125000 I-1.319633 J-0.055943
G03 X48.858560 Y31.414001 Z-0.125000 I471.651834 J-7.672160
G03 X49.158259 Y28.144768 Z-0.125000 I16.245071 J-0.159125
G03 X49.434788 Y27.064290 Z-0.125000 I9.454459 J1.844068
G03 X49.826435 Y26.136625 Z-0.125000 I5.278410 J1.681965
G03 X50.129159 Y25.094840 Z-0.125000 I17.562453 J4.538460
G03 X50.473422 Y24.158455 Z-0.125000 I11.986127 J3.875237
G02 X50.465283 Y24.058825 Z-0.125000 I-5.781117 J0.422147
G03 X50.459981 Y23.957948 Z-0.125000 I1.337032 J-0.120844
G03 X51.454170 Y21.454402 Z-0.125000 I3.519040 J-0.051722
G03 X53.927466 Y20.387112 Z-0.125000 I2.525027 J2.451994
G03 X56.150797 Y21.186780 Z-0.125000 I0.049268 J3.353640
G03 X57.349476 Y23.169369 Z-0.125000 I-2.374240 J2.789130
G03 X57.459324 Y23.504408 Z-0.125000 I-1.613525 J0.714543
G03 X57.500371 Y23.854597 Z-0.125000 I-1.723372 J0.379505
G03 X57.469608 Y24.205842 Z-0.125000 I-1.764520 J0.022430
G03 X57.369630 Y24.543960 Z-0.125000 I-1.733758 J-0.328816
G03 X56.229706 Y26.560843 Z-0.125000 I-3.594676 J-0.701099
G03 X54.030820 Y27.425433 Z-0.125000 I-2.248184 J-2.489262
G03 X53.646642 Y27.408723 Z-0.125000 I-0.048646 J-3.306242
G03 X53.279444 Y27.352054 Z-0.125000 I0.366393 J-3.592092
G02 X52.414090 Y28.115532 Z-0.125000 I3.731496 J5.101561
G02 X51.617016 Y29.099749 Z-0.125000 I6.087857 J5.745157
G02 X50.846700 Y30.442455 Z-0.125000 I7.574842 J5.238040
G02 X50.287383 Y31.922312 Z-0.125000 I9.520153 J4.443795
G03 X49.584701 Y36.927851 Z-0.125000 I-148.839147 J-18.342093
G03 X48.000187 Y44.212502 Z-0.125000 I-63.678350 J-10.036278
G01 X48.000187 Y192.050836 Z-0.125000
G02 X49.903949 Y196.646925 Z-0.125000 I6.499855 J-0.000000
G02 X54.500042 Y198.550690 Z-0.125000 I4.596093 J-4.596089
G02 X59.096130 Y196.646929 Z-0.125000 I-0.000000 J-6.499850
G02 X60.999894 Y192.050836 Z-0.125000 I-4.596093 J-4.596093
G01 X60.999894 Y50.367158 Z-0.125000
G01 X61.002010 Y50.367158 Z-0.125000
G03 X61.441453 Y49.306692 Z-0.125000 I1.499282 J-0.000000
G03 X62.502178 Y48.867509 Z-0.125000 I1.060725 J1.061351
G03 X63.562586 Y49.306745 Z-0.125000 I-0.000000 J1.499644
G03 X64.001823 Y50.367158 Z-0.125000 I-1.060413 J1.060413
G01 X64.001823 Y192.050836 Z-0.125000
G01 X64.000236 Y192.050836 Z-0.125000
G02 X65.904818 Y196.647141 Z-0.125000 I6.498395 J-0.000000
G02 X70.502157 Y198.550690 Z-0.125000 I4.597339 J-4.599833
G02 X75.098247 Y196.646928 Z-0.125000 I0.000000 J-6.499854
G02 X77.002011 Y192.050836 Z-0.125000 I-4.596091 J-4.596092
G01 X77.002011 Y48.549181 Z-0.125000
G03 X77.221327 Y47.663792 Z-0.125000 I1.896838 J-0.000000
G03 X77.763722 Y46.988557 Z-0.125000 I2.016399 J1.064247
G03 X78.495638 Y46.510766 Z-0.125000 I2.272745 J2.682063
G03 X79.459223 Y46.107475 Z-0.125000 I3.995824 J8.194436
G03 X81.543432 Y45.492411 Z-0.125000 I6.939445 J19.676255
G02 X84.092007 Y44.775775 Z-0.125000 I-7.849737 J-32.806130
G02 X86.479790 Y43.793039 Z-0.125000 I-5.168745 J-15.950841
G02 X88.371328 Y42.388843 Z-0.125000 I-3.118083 J-6.176355
G02 X89.500545 Y40.558788 Z-0.125000 I-3.765092 J-3.586626
G02 X89.960895 Y37.271850 Z-0.125000 I-7.656996 J-2.748102
G02 X89.895679 Y37.027480 Z-0.125000 I-11.827469 J3.025574
G02 X87.372942 Y29.675939 Z-0.125000 I-63.059900 J17.530858
G02 X84.173722 Y23.085876 Z-0.125000 I-54.701440 J22.483849
G02 X79.718638 Y17.580569 Z-0.125000 I-18.614400 J10.508157
G02 X77.023461 Y15.755868 Z-0.125000 I-8.387124 J9.485400
G02 X74.213036 Y14.945590 Z-0.125000 I-3.563488 J7.080780
G02 X71.381177 Y15.211884 Z-0.125000 I-0.719474 J7.539482
G02 X67.515779 Y17.068456 Z-0.125000 I3.638350 J12.527256
G02 X61.560224 Y23.128166 Z-0.125000 I13.560812 J19.284178
G02 X50.000075 Y44.254875 Z-0.125000 I105.239450 J71.311209
G01 X50.000075 Y192.050836 Z-0.125000
G02 X51.318087 Y195.232800 Z-0.125000 I4.499979 J0.000000
G02 X54.500055 Y196.550815 Z-0.125000 I3.181968 J-3.181965
G02 X57.682018 Y195.232803 Z-0.125000 I0.000000 J-4.499976
G02 X59.000033 Y192.050836 Z-0.125000 I-3.181966 J-3.181967
G01 X59.000033 Y50.367158 Z-0.125000
G01 X59.002009 Y50.367158 Z-0.125000
G03 X60.027167 Y47.892600 Z-0.125000 I3.499161 J0.000000
G03 X62.502051 Y46.867632 Z-0.125000 I2.474883 J2.475439
G03 X64.976931 Y47.892599 Z-0.125000 I0.000000 J3.500402
G03 X66.002089 Y50.367158 Z-0.125000 I-2.474004 J2.474559
G01 X66.002089 Y192.050836 Z-0.125000
G02 X67.320101 Y195.232801 Z-0.125000 I4.499981 J-0.000000
G02 X70.502067 Y196.550815 Z-0.125000 I3.181965 J-3.181962
G02 X73.684032 Y195.232802 Z-0.125000 I0.000000 J-4.499981
G02 X75.002047 Y192.050836 Z-0.125000 I-3.181964 J-3.181967
G01 X75.002047 Y47.917699 Z-0.125000
G03 X75.005600 Y47.839953 Z-0.125000 I0.499662 J-0.016120
G03 X75.021176 Y47.763701 Z-0.125000 I0.496109 J0.061626
G03 X76.234245 Y45.847274 Z-0.125000 I3.954630 J1.161080
G03 X78.093853 Y44.648651 Z-0.125000 I4.760516 J5.343859
G03 X80.313382 Y43.871470 Z-0.125000 I5.924367 J13.361301
G02 X82.646540 Y43.224967 Z-0.125000 I-21.864768 J-83.440811
G02 X84.893087 Y42.417971 Z-0.125000 I-5.536916 J-18.944390
G02 X86.431318 Y41.406475 Z-0.125000 I-2.069649 J-4.822793
G02 X87.302496 Y40.052264 Z-0.125000 I-2.317565 J-2.448238
G02 X87.573367 Y37.464601 Z-0.125000 I-5.486318 J-1.882304
G02 X87.551577 Y37.374270 Z-0.125000 I-4.907477 J1.136014
G02 X85.386422 Y30.545136 Z-0.125000 I-56.902483 J14.282957
G02 X82.633170 Y24.550370 Z-0.125000 I-49.330535 J19.026688
G02 X78.783216 Y19.623335 Z-0.125000 I-16.248282 J8.728625
G02 X76.428306 Y18.000431 Z-0.125000 I-7.207413 J7.938296
G02 X73.966461 Y17.298934 Z-0.125000 I-3.034704 J5.979472
G02 X71.487863 Y17.564562 Z-0.125000 I-0.557168 J6.497852
G02 X68.009727 Y19.299324 Z-0.125000 I3.515464 J11.402526
G02 X62.637822 Y24.853600 Z-0.125000 I12.944973 J17.894831
G02 X51.999873 Y44.257976 Z-0.125000 I100.541920 J67.737699
G01 X51.999873 Y192.050836 Z-0.125000
G02 X52.732136 Y193.818676 Z-0.125000 I2.500104 J-0.000000
G02 X54.499976 Y194.550939 Z-0.125000 I1.767840 J-1.767839
G02 X56.267812 Y193.818678 Z-0.125000 I0.000000 J-2.500098
G02 X57.000076 Y192.050836 Z-0.125000 I-1.767842 J-1.767842
G01 X57.000076 Y50.367158 Z-0.125000
G01 X57.002193 Y50.367158 Z-0.125000
G03 X58.613014 Y46.478197 Z-0.125000 I5.499916 J0.000000
G03 X62.502109 Y44.867242 Z-0.125000 I3.889095 J3.888961
G03 X66.391199 Y46.478194 Z-0.125000 I-0.000000 J5.499911
G03 X68.002022 Y50.367158 Z-0.125000 I-3.889094 J3.888964
G01 X68.002022 Y192.050836 Z-0.125000
G02 X68.734286 Y193.818677 Z-0.125000 I2.500104 J-0.000000
G02 X70.502125 Y194.550939 Z-0.125000 I1.767839 J-1.767840
G02 X72.269652 Y193.818624 Z-0.125000 I-0.000000 J-2.499222
G02 X73.001712 Y192.050836 Z-0.125000 I-1.768410 J-1.767788
G01 X73.001712 Y47.291380 Z-0.125000
G03 X73.001711 Y47.290322 Z-0.125000 I0.499922 J-0.001058
G03 X73.001712 Y47.289264 Z-0.125000 I0.499923 J-0.000000
G03 X73.657922 Y45.265284 Z-0.125000 I3.514550 J0.021112
G03 X75.103390 Y43.929782 Z-0.125000 I3.952463 J2.827917
G03 X77.029429 Y43.036007 Z-0.125000 I5.103208 J8.475003
G03 X79.292792 Y42.291124 Z-0.125000 I42.455140 J125.190956
G02 X81.552581 Y41.500503 Z-0.125000 I-13.178100 J-41.291055
G02 X83.285310 Y40.587871 Z-0.125000 I-2.898861 J-7.604999
G02 X84.471796 Y39.356786 Z-0.125000 I-2.467468 J-3.565372
G02 X85.052640 Y37.543100 Z-0.125000 I-3.138440 J-2.004957
G02 X85.028010 Y37.424491 Z-0.125000 I-6.710602 J1.331615
G02 X83.316314 Y31.324365 Z-0.125000 I-51.655998 J11.204468
G02 X81.030856 Y25.856141 Z-0.125000 I-44.933735 J15.568447
G02 X77.814331 Y21.470715 Z-0.125000 I-14.039684 J6.925208
G02 X75.810588 Y20.033803 Z-0.125000 I-6.054221 J6.326939
G02 X73.716912 Y19.435701 Z-0.125000 I-2.502616 J4.796950
G02 X71.606724 Y19.695907 Z-0.125000 I-0.407797 J5.379467
G02 X68.517752 Y21.320336 Z-0.125000 I3.391294 J10.197964
G02 X63.741166 Y26.399440 Z-0.125000 I12.508979 J16.549527
G02 X53.999737 Y44.258495 Z-0.125000 I98.087422 J65.089239
G01 X53.999737 Y192.030166 Z-0.125000
G03 X53.999843 Y192.040498 Z-0.125000 I-0.499893 J0.010332
G03 X53.999737 Y192.050830 Z-0.125000 I-0.499999 J0.000000
G02 X54.146464 Y192.403299 Z-0.125000 I0.496713 J0.000000
G02 X54.499965 Y192.548993 Z-0.125000 I0.353501 J-0.356008
G02 X54.853151 Y192.403247 Z-0.125000 I-0.000000 J-0.500811
G02 X54.999675 Y192.050830 Z-0.125000 I-0.350551 J-0.352417
G01 X54.999675 Y50.367152 Z-0.125000
G03 X57.197239 Y45.063829 Z-0.125000 I7.497968 J0.000000
G03 X62.502051 Y42.867359 Z-0.125000 I5.304811 J5.307733
G03 X67.805298 Y45.064093 Z-0.125000 I-0.000000 J7.499788
G03 X70.001841 Y50.367152 Z-0.125000 I-5.303252 J5.303059
G01 X70.001841 Y192.050836 Z-0.125000
G02 X70.148568 Y192.403305 Z-0.125000 I0.496715 J0.000000
G02 X70.502067 Y192.548998 Z-0.125000 I0.353499 J-0.356005
G02 X70.855255 Y192.403251 Z-0.125000 I-0.000000 J-0.500816
G02 X71.001779 Y192.050836 Z-0.125000 I-0.350549 J-0.352416
G01 X71.001779 Y44.183562 Z-0.125000
G01 X71.002838 Y44.183562 Z-0.125000
G03 X71.001767 Y44.160320 Z-0.125000 I0.498737 J-0.034615
G03 X71.001779 Y44.137054 Z-0.125000 I0.499807 J-0.011373
G02 X71.155506 Y38.424761 Z-0.125000 I-22451.516539 J-607.061034
G03 X71.228638 Y35.998544 Z-0.125000 I361.537960 J9.683493
G03 X71.228109 Y35.998015 Z-0.125000 I0.353023 J-0.354082
G03 X71.227580 Y35.997486 Z-0.125000 I0.353553 J-0.353553
G03 X71.224992 Y35.995166 Z-0.125000 I0.332420 J-0.373492
G03 X71.222420 Y35.992829 Z-0.125000 I0.335007 J-0.371173
G03 X71.220870 Y35.991509 Z-0.125000 I0.323309 J-0.381406
G03 X71.219325 Y35.990183 Z-0.125000 I0.324860 J-0.380086
G03 X71.218265 Y35.989391 Z-0.125000 I0.298940 J-0.400792
G03 X71.217208 Y35.988596 Z-0.125000 I0.300000 J-0.399999
G03 X71.216414 Y35.988067 Z-0.125000 I0.276555 J-0.416553
G03 X71.215621 Y35.987537 Z-0.125000 I0.277350 J-0.416025
G03 X71.205396 Y35.977600 Z-0.125000 I0.343329 J-0.363490
G03 X71.195459 Y35.967376 Z-0.125000 I0.353553 J-0.353553
G03 X71.194665 Y35.966583 Z-0.125000 I0.352758 J-0.354346
G03 X71.193872 Y35.965789 Z-0.125000 I0.353553 J-0.353553
G03 X71.187606 Y35.959125 Z-0.125000 I0.361108 J-0.345833
G03 X71.181463 Y35.952348 Z-0.125000 I0.367374 J-0.339170
G03 X71.178085 Y35.948753 Z-0.125000 I0.362684 J-0.344180
G03 X71.174743 Y35.945125 Z-0.125000 I0.366062 J-0.340585
G03 X71.172150 Y35.942039 Z-0.125000 I0.381518 J-0.323177
G03 X71.169583 Y35.938933 Z-0.125000 I0.384110 J-0.320092
G03 X71.169319 Y35.938669 Z-0.125000 I0.353288 J-0.353817
G03 X71.169054 Y35.938404 Z-0.125000 I0.353553 J-0.353553
G03 X71.166193 Y35.934806 Z-0.125000 I0.389948 J-0.312953
G03 X71.163366 Y35.931181 Z-0.125000 I0.392809 J-0.309355
G03 X71.159207 Y35.926300 Z-0.125000 I0.378510 J-0.326695
G03 X71.155111 Y35.921365 Z-0.125000 I0.382669 J-0.321813
G03 X71.154581 Y35.920572 Z-0.125000 I0.415495 J-0.278143
G03 X71.154052 Y35.919778 Z-0.125000 I0.416025 J-0.277350
G03 X71.154052 Y35.919513 Z-0.125000 I0.499999 J-0.000265
G03 X71.154052 Y35.919248 Z-0.125000 I0.500000 J0.000001
G03 X71.152726 Y35.917703 Z-0.125000 I0.378760 J-0.326405
G03 X71.151406 Y35.916153 Z-0.125000 I0.380086 J-0.324860
G03 X71.147762 Y35.911003 Z-0.125000 I0.406316 J-0.291388
G03 X71.144183 Y35.905808 Z-0.125000 I0.409960 J-0.286238
G03 X71.140523 Y35.900407 Z-0.125000 I0.412052 J-0.283218
G03 X71.136934 Y35.894960 Z-0.125000 I0.415712 J-0.277818
G03 X71.136669 Y35.894695 Z-0.125000 I0.353288 J-0.353817
G03 X71.136405 Y35.894431 Z-0.125000 I0.353553 J-0.353553
G03 X71.135874 Y35.893373 Z-0.125000 I0.446683 J-0.224664
G03 X71.135346 Y35.892314 Z-0.125000 I0.447213 J-0.223607
G03 X71.134286 Y35.890993 Z-0.125000 I0.389373 J-0.313668
G03 X71.133230 Y35.889668 Z-0.125000 I0.390434 J-0.312347
G03 X71.131406 Y35.886579 Z-0.125000 I0.429664 J-0.255712
G03 X71.129605 Y35.883477 Z-0.125000 I0.431487 J-0.252623
G03 X71.129605 Y35.883212 Z-0.125000 I0.499999 J-0.000263
G03 X71.129605 Y35.882948 Z-0.125000 I0.499999 J-0.000001
G03 X71.124886 Y35.875751 Z-0.125000 I0.415745 J-0.277769
G03 X71.120291 Y35.868475 Z-0.125000 I0.420464 J-0.270573
G03 X71.119496 Y35.867153 Z-0.125000 I0.427950 J-0.258569
G03 X71.118704 Y35.865829 Z-0.125000 I0.428746 J-0.257248
G03 X71.116097 Y35.860935 Z-0.125000 I0.439981 J-0.237521
G03 X71.113545 Y35.856013 Z-0.125000 I0.442588 J-0.232627
G03 X71.109885 Y35.849584 Z-0.125000 I0.432700 J-0.250540
G03 X71.106321 Y35.843101 Z-0.125000 I0.436359 J-0.244111
G03 X71.106056 Y35.842308 Z-0.125000 I0.474076 J-0.158907
G03 X71.105792 Y35.841514 Z-0.125000 I0.474341 J-0.158114
G03 X71.104996 Y35.839968 Z-0.125000 I0.444112 J-0.229704
G03 X71.104205 Y35.838418 Z-0.125000 I0.444908 J-0.228158
G03 X71.102645 Y35.835064 Z-0.125000 I0.452576 J-0.212543
G03 X71.101109 Y35.831698 Z-0.125000 I0.454136 J-0.209189
G03 X71.096892 Y35.822690 Z-0.125000 I0.450691 J-0.216510
G03 X71.092854 Y35.813600 Z-0.125000 I0.454909 J-0.207502
G03 X71.091789 Y35.811024 Z-0.125000 I0.461518 J-0.192355
G03 X71.090737 Y35.808441 Z-0.125000 I0.462584 J-0.189778
G03 X71.090207 Y35.807383 Z-0.125000 I0.446683 J-0.224664
G03 X71.089679 Y35.806324 Z-0.125000 I0.447213 J-0.223607
G03 X71.085704 Y35.796800 Z-0.125000 I0.459418 J-0.197317
G03 X71.081927 Y35.787195 Z-0.125000 I0.463393 J-0.187793
G03 X71.081661 Y35.786137 Z-0.125000 I0.484805 J-0.122326
G03 X71.081398 Y35.785078 Z-0.125000 I0.485071 J-0.121268
G03 X71.080598 Y35.782752 Z-0.125000 I0.472455 J-0.163663
G03 X71.079810 Y35.780422 Z-0.125000 I0.473255 J-0.161337
G03 X71.079008 Y35.777580 Z-0.125000 I0.480795 J-0.137241
G03 X71.078223 Y35.774733 Z-0.125000 I0.481598 J-0.134399
G03 X71.075302 Y35.766226 Z-0.125000 I0.471420 J-0.166621
G03 X71.072534 Y35.757668 Z-0.125000 I0.474341 J-0.158114
G03 X71.071729 Y35.754310 Z-0.125000 I0.485802 J-0.118304
G03 X71.070947 Y35.750947 Z-0.125000 I0.486607 J-0.114947
G03 X71.070412 Y35.748620 Z-0.125000 I0.487031 J-0.113137
G03 X71.069888 Y35.746291 Z-0.125000 I0.487566 J-0.110810
G03 X71.068818 Y35.742934 Z-0.125000 I0.475834 J-0.153562
G03 X71.067772 Y35.739570 Z-0.125000 I0.476904 J-0.150206
G03 X71.065339 Y35.729514 Z-0.125000 I0.484741 J-0.122580
G03 X71.063115 Y35.719409 Z-0.125000 I0.487173 J-0.112523
G03 X71.061498 Y35.711154 Z-0.125000 I0.489845 J-0.100257
G03 X71.060019 Y35.702872 Z-0.125000 I0.491462 J-0.092002
G03 X71.059479 Y35.699514 Z-0.125000 I0.493372 J-0.081140
G03 X71.058961 Y35.696152 Z-0.125000 I0.493912 J-0.077781
G03 X71.058420 Y35.692794 Z-0.125000 I0.493372 J-0.081140
G03 X71.057903 Y35.689432 Z-0.125000 I0.493912 J-0.077781
G01 X69.245096 Y25.302998 Z-0.125000
G03 X69.210797 Y25.135084 Z-0.125000 I3.466778 J-0.795608
G03 X69.185668 Y24.962970 Z-0.125000 I2.640475 J-0.473400
G01 X69.181012 Y24.935064 Z-0.125000
G03 X69.174051 Y24.873245 Z-0.125000 I0.492417 J-0.086748
G03 X69.174821 Y24.811041 Z-0.125000 I0.499378 J-0.024929
G02 X69.168431 Y24.715542 Z-0.125000 I-11.968282 J0.752847
G03 X69.165005 Y24.618803 Z-0.125000 I1.364048 J-0.096739
G03 X70.079804 Y22.410285 Z-0.125000 I3.123324 J0.000005
G03 X72.288325 Y21.495485 Z-0.125000 I2.208521 J2.208519
G03 X73.926977 Y22.109168 Z-0.125000 I0.000000 J2.494600
G03 X74.948625 Y23.507245 Z-0.125000 I-2.570953 J2.951055
G03 X75.292099 Y24.016553 Z-0.125000 I-1.101152 J1.113083
G03 X75.413196 Y24.618803 Z-0.125000 I-1.444626 J0.603775
G03 X75.291444 Y25.222130 Z-0.125000 I-1.565722 J-0.002015
G03 X74.946556 Y25.731914 Z-0.125000 I-1.443970 J-0.605343
G03 X74.690965 Y26.234294 Z-0.125000 I-4.168644 J-1.804628
G03 X74.380184 Y26.683275 Z-0.125000 I-3.235552 J-1.907575
G01 X72.272304 Y34.827986 Z-0.125000
G02 X72.184654 Y37.439266 Z-0.125000 I218.329021 J8.635559
G02 X72.001004 Y44.163840 Z-0.125000 I12404.211115 J342.128232
G03 X72.000566 Y44.173410 Z-0.125000 I-0.499611 J-0.018047
G03 X71.999945 Y44.182969 Z-0.125000 I-0.499173 J-0.027617
G01 X72.001004 Y44.182969 Z-0.125000
G01 X72.001004 Y192.050836 Z-0.125000
G03 X71.561606 Y193.110312 Z-0.125000 I-1.497006 J0.000000
G03 X70.501355 Y193.548935 Z-0.125000 I-1.060251 J-1.062124
G03 X69.440794 Y193.110367 Z-0.125000 I0.000000 J-1.501629
G03 X69.001191 Y192.050836 Z-0.125000 I1.057040 J-1.059531
G01 X69.001191 Y50.367158 Z-0.125000
G02 X67.097556 Y45.771195 Z-0.125000 I-6.499856 J0.000000
G02 X62.501339 Y43.867303 Z-0.125000 I-4.596217 J4.595958
G02 X57.903869 Y45.770984 Z-0.125000 I-0.000000 J6.503383
G02 X55.999418 Y50.367158 Z-0.125000 I4.593943 J4.596174
G01 X55.999418 Y192.050836 Z-0.125000
G03 X55.559815 Y193.110367 Z-0.125000 I-1.496643 J0.000000
G03 X54.499253 Y193.548935 Z-0.125000 I-1.060561 J-1.063061
G03 X53.438689 Y193.110366 Z-0.125000 I-0.000000 J-1.501634
G03 X52.999086 Y192.050836 Z-0.125000 I1.057038 J-1.059530
G01 X52.999086 Y44.150489 Z-0.125000
G01 X53.000145 Y44.150489 Z-0.125000
G03 X53.010642 Y44.047807 Z-0.125000 I0.499922 J-0.000772
G03 X53.042002 Y43.949470 Z-0.125000 I0.489425 J0.101910
G03 X62.818888 Y25.955435 Z-0.125000 I109.930516 J48.076584
G03 X67.913426 Y20.523539 Z-0.125000 I18.350116 J12.105437
G03 X71.256759 Y18.756096 Z-0.125000 I7.115416 J9.413785
G03 X73.792130 Y18.437879 Z-0.125000 I2.050536 J6.078210
G03 X76.296465 Y19.158992 Z-0.125000 I-0.484489 J6.391753
G03 X78.502948 Y20.748332 Z-0.125000 I-4.570520 J8.671561
G03 X81.966410 Y25.484653 Z-0.125000 I-11.582695 J12.104411
G03 X84.260729 Y30.996272 Z-0.125000 I-44.033180 J21.563010
G03 X85.318616 Y34.358741 Z-0.125000 I-57.993397 J20.093306
G03 X86.053898 Y37.425845 Z-0.125000 I-37.198456 J10.539335
G01 X86.065778 Y37.484754 Z-0.125000
G01 X86.061651 Y37.543150 Z-0.125000
G03 X85.320947 Y39.890772 Z-0.125000 I-4.713370 J-0.196465
G03 X83.854552 Y41.410608 Z-0.125000 I-4.522669 J-2.896308
G03 X81.853894 Y42.459283 Z-0.125000 I-5.256183 J-7.594957
G03 X79.594869 Y43.244605 Z-0.125000 I-16.441644 J-43.653644
G02 X77.291827 Y44.006689 Z-0.125000 I34.683203 J108.674677
G02 X75.620441 Y44.785591 Z-0.125000 I2.827993 J8.251068
G02 X74.469201 Y45.850154 Z-0.125000 I1.993350 J3.310420
G02 X74.001420 Y47.294997 Z-0.125000 I2.044228 J1.459982
G01 X74.001420 Y192.050836 Z-0.125000
G03 X72.976281 Y194.525740 Z-0.125000 I-3.500042 J0.000000
G03 X70.501379 Y195.550877 Z-0.125000 I-2.474902 J-2.474904
G03 X68.026478 Y194.525740 Z-0.125000 I0.000000 J-3.500037
G03 X67.001340 Y192.050836 Z-0.125000 I2.474905 J-2.474904
G01 X67.001340 Y50.367158 Z-0.125000
G02 X65.683423 Y47.185288 Z-0.125000 I-4.499981 J0.000000
G02 X62.501363 Y45.867180 Z-0.125000 I-3.182056 J3.181862
G02 X59.318050 Y47.185078 Z-0.125000 I-0.000000 J4.503511
G02 X57.999316 Y50.367158 Z-0.125000 I3.179782 J3.182080
G01 X57.999316 Y192.050836 Z-0.125000
G03 X56.974177 Y194.525741 Z-0.125000 I-3.500043 J0.000000
G03 X54.499277 Y195.550877 Z-0.125000 I-2.474899 J-2.474901
G03 X52.024374 Y194.525739 Z-0.125000 I0.000000 J-3.500042
G03 X50.999236 Y192.050836 Z-0.125000 I2.474903 J-2.474903
G01 X50.999236 Y44.165994 Z-0.125000
G03 X51.007799 Y44.056509 Z-0.125000 I0.499667 J-0.015996
G03 X51.040061 Y43.951536 Z-0.125000 I0.491104 J0.093489
G03 X61.719492 Y24.402164 Z-0.125000 I113.110535 J49.098358
G03 X67.423019 Y18.490589 Z-0.125000 I19.371198 J12.982275
G03 X71.164262 Y16.617225 Z-0.125000 I7.601293 J10.507880
G03 X74.052064 Y16.303128 Z-0.125000 I2.243775 J7.196986
G03 X76.904158 Y17.120357 Z-0.125000 I-0.659014 J7.685390
G03 X79.454309 Y18.883331 Z-0.125000 I-5.348883 J10.463076
G03 X83.552150 Y24.140906 Z-0.125000 I-13.123621 J14.454518
G03 X86.319516 Y30.185986 Z-0.125000 I-47.946196 J25.605170
G03 X88.509526 Y37.082993 Z-0.125000 I-55.688265 J21.478922
G03 X88.544701 Y37.228440 Z-0.125000 I-7.624406 J1.920901
G03 X88.554884 Y37.268396 Z-0.125000 I-0.478933 J0.143337
G03 X88.561740 Y37.309055 Z-0.125000 I-0.489116 J0.103381
G03 X88.252305 Y40.364050 Z-0.125000 I-6.790207 J0.855400
G03 X87.118419 Y42.133044 Z-0.125000 I-4.137929 J-1.404427
G03 X85.224710 Y43.369071 Z-0.125000 I-4.348502 J-4.593627
G03 X82.926948 Y44.185631 Z-0.125000 I-8.291419 J-19.690496
G03 X80.512748 Y44.855914 Z-0.125000 I-25.982779 J-88.900953
G02 X78.497252 Y45.562804 Z-0.125000 I3.399320 J12.918949
G02 X76.904084 Y46.587214 Z-0.125000 I2.501177 J5.640897
G02 X76.001282 Y47.979709 Z-0.125000 I2.063693 J2.326871
G01 X76.001282 Y192.050836 Z-0.125000
G03 X74.390392 Y195.939866 Z-0.125000 I-5.499918 J-0.000000
G03 X70.501366 Y197.550753 Z-0.125000 I-3.889026 J-3.889029
G03 X66.612025 Y195.939917 Z-0.125000 I0.000000 J-5.500796
G03 X65.000934 Y192.050836 Z-0.125000 I3.888461 J-3.889081
G01 X65.000934 Y50.367158 Z-0.125000
G02 X64.268887 Y48.599747 Z-0.125000 I-2.499589 J0.000000
G02 X62.501349 Y47.867571 Z-0.125000 I-1.767538 J1.767406
G02 X60.732248 Y48.599481 Z-0.125000 I-0.000000 J2.504004
G02 X59.999177 Y50.367158 Z-0.125000 I1.764692 J1.767677
G01 X59.999177 Y192.050836 Z-0.125000
G03 X58.388289 Y195.939866 Z-0.125000 I-5.499920 J0.000000
G03 X54.499264 Y197.550753 Z-0.125000 I-3.889024 J-3.889024
G03 X50.610235 Y195.939863 Z-0.125000 I-0.000000 J-5.499915
G03 X48.999348 Y192.050836 Z-0.125000 I3.889031 J-3.889028
G01 X48.999348 Y44.150489 Z-0.125000
G01 X48.999877 Y44.150489 Z-0.125000
G03 X49.010035 Y44.049999 Z-0.125000 I0.499923 J-0.000225
G03 X49.040184 Y43.953602 Z-0.125000 I0.489765 J0.100264
G03 X60.644128 Y22.673969 Z-0.125000 I118.717778 J50.934021
G03 X66.940877 Y16.251969 Z-0.125000 I20.560113 J13.861150
G03 X71.074702 Y14.258320 Z-0.125000 I8.108931 J11.531282
G03 X74.305794 Y13.949271 Z-0.125000 I2.416855 J8.223124
G03 X77.495015 Y14.872529 Z-0.125000 I-0.849818 J8.905452
G03 X80.379834 Y16.830228 Z-0.125000 I-6.175540 J12.204477
G03 X85.080306 Y22.651999 Z-0.125000 I-14.861357 J16.807449
G03 X88.296136 Y29.295085 Z-0.125000 I-52.901625 J29.708892
G03 X89.834174 Y33.367974 Z-0.125000 I-69.666631 J28.634929
G03 X90.942485 Y37.078580 Z-0.125000 I-43.681640 J15.067975
G03 X90.943288 Y37.081673 Z-0.125000 I-0.483454 J0.127262
G03 X90.944072 Y37.084771 Z-0.125000 I-0.484257 J0.124169
G03 X90.944876 Y37.087864 Z-0.125000 I-0.483454 J0.127262
G03 X90.945660 Y37.090962 Z-0.125000 I-0.484257 J0.124169
G03 X90.948132 Y37.102827 Z-0.125000 I-0.488137 J0.107913
G03 X90.950316 Y37.114748 Z-0.125000 I-0.490609 J0.096048
G03 X90.950316 Y37.115013 Z-0.125000 I-0.499923 J0.000264
G03 X90.950316 Y37.115277 Z-0.125000 I-0.499923 J0.000001
G03 X90.952607 Y37.130232 Z-0.125000 I-0.492958 J0.083156
G03 X90.954444 Y37.145249 Z-0.125000 I-0.495249 J0.068202
G03 X90.955615 Y37.155835 Z-0.125000 I-0.496277 J0.060268
G03 X90.956560 Y37.166442 Z-0.125000 I-0.497448 J0.049683
G03 X90.957628 Y37.182966 Z-0.125000 I-0.498280 J0.040492
G03 X90.958148 Y37.199515 Z-0.125000 I-0.499348 J0.023969
G03 X90.446841 Y40.884571 Z-0.125000 I-9.135692 J0.610409
G03 X89.095214 Y43.080285 Z-0.125000 I-5.843507 J-2.083246
G03 X86.888754 Y44.709643 Z-0.125000 I-5.748765 J-5.476257
G03 X84.399900 Y45.726631 Z-0.125000 I-8.052467 J-16.152680
G03 X81.717684 Y46.482065 Z-0.125000 I-11.063945 J-34.143833
G02 X79.792436 Y47.051097 Z-0.125000 I4.538236 J18.895997
G02 X78.893399 Y47.432899 Z-0.125000 I2.599063 J7.369455
G02 X78.409577 Y47.752347 Z-0.125000 I1.089250 J2.175839
G02 X78.102673 Y48.136159 Z-0.125000 I0.826897 J0.975813
G02 X78.001333 Y48.549195 Z-0.125000 I0.791045 J0.413035
G01 X78.001333 Y192.050836 Z-0.125000
G03 X75.804694 Y197.353991 Z-0.125000 I-7.499792 J0.000000
G03 X70.501540 Y199.550628 Z-0.125000 I-5.303153 J-5.303156
G03 X65.196827 Y197.354256 Z-0.125000 I-0.000000 J-7.504202
G03 X62.999168 Y192.050836 Z-0.125000 I5.300302 J-5.303416
G03 X62.999809 Y192.030403 Z-0.125000 I0.499970 J0.005457
G03 X63.001284 Y192.010013 Z-0.125000 I0.499329 J0.025890
G01 X63.001284 Y50.367158 Z-0.125000
G02 X62.854953 Y50.013840 Z-0.125000 I-0.499710 J0.000000
G02 X62.501574 Y49.867448 Z-0.125000 I-0.353379 J0.353318
G02 X62.147881 Y50.013787 Z-0.125000 I0.000000 J0.500596
G02 X62.001346 Y50.367158 Z-0.125000 I0.352808 J0.353370
G03 X62.000759 Y50.388884 Z-0.125000 I-0.499977 J-0.002625
G03 X61.999229 Y50.410565 Z-0.125000 I-0.499391 J-0.024352
G01 X61.999229 Y192.050836 Z-0.125000
G03 X59.802589 Y197.353992 Z-0.125000 I-7.499794 J-0.000000
G03 X54.499439 Y199.550628 Z-0.125000 I-5.303151 J-5.303152
G01 X54.499965 Y199.550628 Z-0.125000
G00 Z5.000000

(End cutting path id: path1598)


(Start cutting path id: path1598)
(Change tool to Default tool)

G00 Z5.000000
G00 X71.592956 Y27.771666

G01 Z-0.125000 F100.0(Penetrate)
G01 X71.600179 Y27.663145 Z-0.125000 F400.000000
G03 X71.592958 Y27.661406 Z-0.125000 I0.035377 J-0.162734
G02 X71.585706 Y27.659520 Z-0.125000 I-0.223442 J0.844477
G01 X71.592956 Y27.771666 Z-0.125000
G00 Z5.000000

(End cutting path id: path1598)


(Start cutting path id: path1598)
(Change tool to Default tool)

G00 Z5.000000
G00 X71.592956 Y27.771666

G01 Z-0.125000 F100.0(Penetrate)
G01 X71.600179 Y27.663145 Z-0.125000 F400.000000
G03 X71.592958 Y27.661406 Z-0.125000 I0.035377 J-0.162734
G02 X71.585706 Y27.659520 Z-0.125000 I-0.223442 J0.844477
G01 X71.592956 Y27.771666 Z-0.125000
G00 Z5.000000

(End cutting path id: path1598)


(Footer)
M5
G00 X0.0000 Y0.0000
M2
(Using default footer. To add your own footer create file "footer" in the output dir.)
(end)
%